!!!COM1: Joplin, Scott
!!!CDT1: 1868/11/24-1917/04/01
!!!COM2: Chauvin, Louis
!!!CDT2: 1881/03/13-1908/03/26
!!!OTL: Heliotrope Bouquet
!!!ONB: A Slow Drag Two Step
!!!ODT: 1907
!!!OMD: Slow March Tempo.
**kern	**kern	**dynam
*staff2	*staff1	*staff1/2
*Ipiano	*Ipiano	*Ipiano
*>[I,A,B,B1,B,B2,C,D,D1,D,D2,E,E1,E,E2]	*>[I,A,B,B1,B,B2,C,D,D1,D,D2,E,E1,E,E2]	*>[I,A,B,B1,B,B2,C,D,D1,D,D2,E,E1,E,E2]
*>norep[I,A,B,B2,C,D,D2,E,E2]	*>norep[I,A,B,B2,C,D,D2,E,E2]	*>norep[I,A,B,B2,C,D,D2,E,E2]
*>I	*>I	*>I
=1-	=1-	=1-
*clefF4	*clefG2	*clefG2
*k[f#]	*k[f#]	*k[f#]
*M2/4	*M2/4	*M2/4
*MM73	*MM73	*MM73
16DLL	16dLL	mf
16E	16e	.
16F#	16f#	.
[16GJJ	[16gJJ	.
16GLL]	16gLL]	.
16B	16b	.
16A	16a	.
16GJJ	16gJJ	.
=2	=2	=2
16dLL	16ddLL>	.
16c	16cc	.
16B	16b	.
[16AJJ	[16aJJ	.
16ALL]	16aLL>]	.
16B	16b	.
16c	16cc	.
16dJJ	16ddJJ	.
=3	=3	=3
16cLK	16ccLK	.
8E	8e	.
16F#Jk	16f#Jk	.
8GL	8gL	.
8EJ	8eJ	.
=4	=4	=4
8D	8d	.
8r	8r	.
*	*^	*
4B-^ BB-	8ff#^L	4cc# g	.
.	8eeJ	.	.
*	*v	*v	*
!!LO:LB:g=original
=5||	=5||	=5||
*>A	*>A	*>A
*	*^	*
!	!	!	!LO:DY:rj
8.EL AA	(16ccnLL cn	8.eL	mf
.	16dd d	.	.
.	16ee e	.	.
[16DJk	[16bJJ [<c)	[16f#Jk	.
8DL]	16bLL]	8f#]L c]	.
.	16f#J	.	.
8DJ DD	8aJ	8f#J c	.
=6	=6	=6	=6
8DL GG	(16gLL	8.BL	.
.	16b	.	.
16BL BB	16dd	.	.
[16B-JJ [BB-	[16ff#JJ)	[>16cc#Jk [g	.
4B-] BB-]	16ff#LL]	4cc#] g]	.
.	16cc#J	.	.
.	8eeJ	.	.
=7	=7	=7	=7
8.EL AA	(16ccnLL cn	8.eL	.
.	16dd d	.	.
.	16ee e	.	.
[16DJk	[16bJJ [<c)	[>16f#Jk	.
8DL]	16bLL]	8f#]L c]	.
.	16f#J	.	.
8DJ DD	8aJ	8f#J c	.
=8	=8	=8	=8
8DL GG	(16gLL	8.BL	.
.	16b	.	.
16BL BB	16dd	.	.
[16B-JJ [BB-	[16ff#JJ)	[>16cc#Jk [g	.
4B-] BB-]	16ff#LL]	4cc#] g]	.
.	16cc#J	.	.
.	8eeJ	.	.
!!LO:LB:g=original
=9	=9	=9	=9
8.EL AA	(16ccnLL cn	8.eL	.
.	16dd d	.	.
.	16ee e	.	.
[16DJk [DD	[16bJJ [<c)	[>16f#Jk	.
8D]L DD]	16bLL]	8f#]L c]	.
.	16f#J	.	.
8D#J DD#	8aJ	8f#J c	.
=10	=10	=10	=10
8.EL< EE	(16gLL	8.eL B	<
.	16a	.	.
.	16b	.	.
[16BJk [BB	[16ddJJ)	[>16bJk [f# [d	.
8B]L BB]	16ddLL]	8b]L f#] d]	.
.	16ddJ	.	.
8B-J BB-	8eeJ	8ddJ g	[
=11	=11	=11	=11
8.AL AA	(16ff#LL f#	8.ddL f#	<
.	16gg g	.	.
.	16aa a	.	.
[16BBJk [BBB	[16ff#JJ)	[16ddJk [g#	.
8BB]L BBB]	16ff#LL]	8dd]L g#]	.
.	16ddJ	.	.
8AAJ AAA	8eeJ	8cc#J gn	[
*	*v	*v	*
=12	=12	=12
(8Dq/	.	.
4DD)	4dd a f#	f
*	*^	*
4B-^ BB-	(8ff#L^	4cc# g	>
.	8eeJ)	.	]]
!!LO:LB:g=original
=13	=13	=13	=13
!	!	!	!LO:DY:rj
8.EL AA	(16ccnLL cn	8.eL	mf
.	16dd d	.	.
.	16ee e	.	.
[16DJk	[16bJJ [<c)	[>16f#Jk	.
8DL]	16bLL]	8f#]L c]	.
.	16f#J	.	.
8DJ DD	8aJ	8f#J c	.
=14	=14	=14	=14
8DL GG	(16gLL	8.BL	.
.	16b	.	.
16BL BB	16dd	.	.
[16B-JJ [BB-	[16ff#JJ)	[16cc#Jk [g	.
4B-] BB-]	16ff#LL]	4cc#] g]	.
.	16cc#J	.	.
.	8eeJ	.	.
=15	=15	=15	=15
8.EL AA	(16ccnLL cn	8.eL	.
.	16dd d	.	.
.	16ee e	.	.
[16DJk	[16bJJ [<c)	[>16f#Jk	.
8DL]	16bLL]	8f#]L c]	.
.	16f#J	.	.
8DJ DD	8aJ	8f#J c	.
=16	=16	=16	=16
4D GG	8gL	4B	.
.	(16ddL	.	.
.	16bJJ)	.	.
4G GG	(16ddLL	4g	.
.	16b	.	.
.	16dd	.	.
.	16bJJ)	.	.
!!LO:LB:g=original
=17	=17	=17	=17
8FnL GG	8ddL	8gL	.
8FJ GG	16ddL	8gJ	.
.	16bJJ	.	.
8FL GG	16ddLK	4g	.
.	8gg	.	.
8FJ GG	.	.	.
.	16bJk	.	.
=18	=18	=18	=18
8EL GG	8ccL	8gL	.
8EJ GG	16ccL	8gJ	.
.	16bJJ	.	.
8E-L GG	(16ccLL	4g	.
.	16g	.	.
8E-J GG	16a	.	.
.	16a#JJ)	.	.
=19	=19	=19	=19
8DL DD	16bLK	8.gL d	.
.	8dd	.	.
16D#L DD#	.	.	.
[16EJJ [EE	[16bJk	[16gJk [c#	.
8E]L EE]	16bLL]	8g]L c#]	.
.	16gJ	.	.
8DnJ DD	8aJ	8f#J cn	.
*	*v	*v	*
=20	=20	=20
4G GG	4g B	.
4G#^> GG#	4bb^ ee# dd	.
!!LO:LB:g=original
=21!|:	=21!|:	=21!|:
*>B	*>B	*>B
*	*^	*
8AL AA	8bbL	8ff#L cc	f
8cJ F# D	16bbL	[8ff#J [cc	.
.	16aaJJ	.	.
8DL< DD	16bbLK	16ff#]LK cc]	.
.	8ddd	8.ff#J dd	.
8cJ F# D	.	.	.
.	16aaJk	.	.
=22	=22	=22	=22
*^	*	*	*
8AL	4A AA	16bbLL	8.ff#L cc	.
.	.	16aa	.	.
[8cJ [F#	.	16bb	.	.
.	.	[16dddJJ	[>16ff#Jk [dd	.
8c_L F#_	[8DL [DD	8dddL_	8ff#_>L dd_	.
16c]Jk F#]	16D]k DD]	16dddk]	16ff#]Jk dd]	.
16r	48DLL	48ddLL	16r	.
.	48D#	48dd#	.	.
.	48EJJJ	48eeJJJ	.	.
*v	*v	*	*	*
=23	=23	=23	=23
8GL GG	8ggL	8bL	.
8BJ G D	16eeL	[8bJ [g	.
.	16ddJJ	.	.
8DL< DD	16eeLK	16b]LK g]	.
.	8gg	8.bJ g	.
8BJ G D	.	.	.
.	16ddJk	.	.
*	*v	*v	*
=24	=24	=24
8GL GG	16ggLL b g	.
.	16ff# b f#	.
8BJ G D	16gg b g	.
.	[16eeJJ [b [g	.
8DL DD	16ee]LL b] g]	.
.	16dd d	.
16GL GG	16ee e	.
16G#JJ GG#	16ee#JJ e#	.
!!LO:LB:g=original
=25	=25	=25
8AL AA	8ff#L cc f#	.
8cJ A D	16ff#L cc f#	.
.	16ddJJ	.
8DL< DD	16ff#LK cc f#	.
.	8aa cc a	.
8cJ F# D	.	.
.	16eeJk	.
=26	=26	=26
8AL AA	16ff#LL cc f#	.
.	16ee	.
8cJ A D	16ff# cc f#	.
.	[16eeJJ [cc [f#	.
[8DL [DD	8ee_L cc_ f#_	.
16D]L DD]	16ee]k cc] f#]	.
!LO:TUP:b	!LO:TUP:a	!
48DL	48ddLL	.
48E	48ee	.
48F#JJJ	48ff#JJJ	.
=27	=27	=27
!	!LO:TX:a:i:t=R.H.	!
8G^^	8gg^^<L b	.
!	!LO:TX:c:i:t=L.H.	!
(8fn>L	8dd b	.
8e>	8cc# a#	.
8e->J)	8ccnJ an	.
=28	=28	=28
(8d>L	8bL g	.
8c#>	8b- g	.
8cn>J)	8a f#X	.
8G#^^ GG#	8bn^^J e#X d	.
!!LO:LB:g=original
=29	=29	=29
*	*^	*
8AL AA	16r	8r	.
.	16aaLL	.	f
8cJ F# D	16bb	[8ff# [cc	.
.	16aaJJ	.	.
8DL< DD	16bbLK	16ff#]LK cc]	.
.	8ddd	8.ff#J dd	.
8cJ F# D	.	.	.
.	16aaJk	.	.
=30	=30	=30	=30
*^	*	*	*
8AL	4A AA	(16bbLL	8.ff#L cc	.
.	.	16aa	.	.
[8cJ [F#	.	16bb	.	.
.	.	[16dddJJ)	[>16ff#Jk [dd	.
8c_L F#_	[8DL [DD	8dddL_	8ff#_>L dd_	.
16c]Jk F#]	16D]k DD]	16dddk]	16ff#]Jk dd]	.
!	!LO:TUP:a	!	!	!
16r	48DLL	48ddLL	16r	.
.	48D#	48dd#	.	.
.	48EJJJ	48eeJJJ	.	.
*v	*v	*	*	*
=31	=31	=31	=31
8GL GG	8ggL	8bL	.
8BJ G D	16eeL	[8bJ [g	.
.	16ddJJ	.	.
8DL< DD	16eeLK	16b]LK g]	.
.	8gg	8.bJ g	.
8BJ G D	.	.	.
.	16ddJk	.	.
*	*v	*v	*
=32	=32	=32
8GL GG	16ggLL b g	.
.	16ff# b f#	.
8BJ G D	16gg b g	.
.	[16eeJJ [b [g	.
8GL GG	8ee]L b] g]	.
!	!LO:TUP:a	!
8FnJ FFn	24ddL	.
.	24cc#	.
.	24ddJJ	.
!!LO:LB:g=original
=33	=33	=33
8EL EE	8eeL	.
8dJ G# E	8bbJ gg# dd	.
*	*^	*
8AL AA	(16aanLK	4gg# cc#	.
.	8.eeeJ)	.	.
8c#J A Gn E	.	.	.
*	*v	*v	*
=34	=34	=34
8dL A F# D	8ddL ccn	.
8cnJ Cn	8aaJ ff# dd	.
*	*^	*
8BL BB	(16ggLK	4dd	.
.	8.dddJ)	.	.
8BJ G D	.	.	.
=35	=35	=35	=35
8AL AA	(16aaLK	4gg cc#	.
.	8.eeeJ)	.	.
8c#J A G E	.	.	.
8DL< DD	(16aaLK	4ff# ccn	.
.	8.dddJ)	.	.
8cnJ A F# D	.	.	.
*	*v	*v	*
=36	=36	=36
*>B1	*>B1	*>B1
4G\ GG\	4gg dd b	.
4G#^\ GG#\	4bb^ ee# dd	.
=37:|!	=37:|!	=37:|!
*>B2	*>B2	*>B2
4G\ GG\	4gg dd b	.
*	*^	*
4B-^ BB-	(8ff#L^	4cc# g	.
.	8eeJ)	.	.
!!LO:LB:g=original
=38	=38	=38	=38
*	*v	*v	*
*>C	*>C	*>C
*	*^	*
8.EL AA	(16ccnLL cn	8.eL	mf
.	16dd d	.	.
.	16ee e	.	.
[16DJk	[16bJJ [<c)	[>16f#Jk	.
8DL]	16bLL]	8f#]L c]	.
.	16f#J	.	.
8DJ DD	8aJ	8f#J c	.
=39	=39	=39	=39
8DL GG	(16gLL	8.BL	.
.	16b	.	.
16BL BB	16dd	.	.
[16B-JJ [BB-	[16ff#JJ)	[>16cc#Jk [g	.
4B-] BB-]	16ff#LL]	4cc#] g]	.
.	16cc#J	.	.
.	8eeJ	.	.
=40	=40	=40	=40
8.EL AA	(16ccnLL cn	8.eL	.
.	16dd d	.	.
.	16ee e	.	.
[16DJk	[16bJJ [<c)	[>16f#Jk	.
8DL]	16bLL]	8f#]L c]	.
.	16f#J	.	.
8DJ DD	8aJ	8f#J c	.
=41	=41	=41	=41
8DL GG	(16gLL	8.BL	.
.	16b	.	.
16BL BB	16dd	.	.
[16B-JJ [BB-	[16ff#JJ)	[>16cc#Jk [g	.
4B-] BB-]	16ff#LL]	4cc#] g]	.
.	16cc#J	.	.
.	8eeJ	.	.
=42	=42	=42	=42
8.EL AA	(16ccnLL cn	8.eL	.
.	16dd d	.	.
.	16ee e	.	.
[16DJk [DD	[16bJJ [<c)	[>16f#Jk	.
8D]L DD]	16bLL]	8f#]L c]	.
.	16f#J	.	.
8D#J DD#	8aJ	8f#J c	.
!!LO:LB:g=original
=43	=43	=43	=43
8.EL< EE	(16gLL	8.eL B	<
.	16a	.	.
.	16b	.	.
[16BJk [BB	[16ddJJ)	[>16bJk [f# [d	.
8B]L BB]	16ddLL]	8b]L f#] d]	.
.	16ddJ	.	.
8B-J BB-	8eeJ	8ddJ g	[
=44	=44	=44	=44
8.AL AA	(16ff#LL f#	8.ddL f#	<
.	16gg g	.	.
.	16aa a	.	.
[16BBJk [BBB	[16ff#JJ)	[>16ddJk [g#	.
8BB]L BBB]	16ff#LL]	8dd]L g#]	.
.	16ddJ	.	.
8AAJ AAA	8eeJ	8cc#J gn	[
*	*v	*v	*
=45	=45	=45
!(Dq/	!	!
4DD	4dd a f#	f
*	*^	*
4B-^ BB-	(8ff#^L	4cc# g	>
.	8eeJ)	.	]]
=46	=46	=46	=46
8.EL AA	(16ccnLL cn	8.eL	mf
.	16dd d	.	.
.	16ee e	.	.
[16DJk	[16bJJ [<c)	[>16f#Jk	.
8DL]	16bLL]	8f#]L c]	.
.	16f#J	.	.
8DJ DD	8aJ	8f#J c	.
=47	=47	=47	=47
8DL GG	(16gLL	8.BL	.
.	16b	.	.
16BL BB	16dd	.	.
[16B-JJ [BB-	[16ff#JJ)	[>16cc#Jk [g	.
4B-] BB-]	16ff#LL]	4cc#] g]	.
.	16cc#J	.	.
.	8eeJ	.	.
!!LO:LB:g=original
=48	=48	=48	=48
8.EL AA	(16ccnLL cn	8.eL	.
.	16dd d	.	.
.	16ee e	.	.
[16DJk	[16bJJ [<c)	[>16f#Jk	.
8DL]	16bLL]	8f#]L c]	.
.	16f#J	.	.
8DJ DD	8aJ	8f#J c	.
=49	=49	=49	=49
4D GG	8gL	4B	.
.	(16ddL	.	.
.	16bJJ)	.	.
4G GG	(16ddLL	4g	.
.	16b	.	.
.	16dd	.	.
.	16bJJ)	.	.
=50	=50	=50	=50
8FnL GG	8ddL	8gL	.
8FJ GG	16ddL	8gJ	.
.	16bJJ	.	.
8FL GG	16ddLK	4g	.
.	8gg	.	.
8FJ GG	.	.	.
.	16bJk	.	.
=51	=51	=51	=51
8EL GG	8ccL	8gL	.
8EJ GG	16ccL	8gJ	.
.	16bJJ	.	.
8E-L GG	(16ccLL	4g	.
.	16g	.	.
8E-J GG	16a	.	.
.	16a#JJ)	.	.
=52	=52	=52	=52
8DL DD	16bLK	8.gL d	.
.	8dd	.	.
16D#L DD#	.	.	.
[16EJJ [EE	[16bJk	[>16gJk [c#	.
8E]L EE]	16bLK]	8g]L c#]	.
.	16g	.	.
8DnJ DDn	8aJ	8f#J cn	.
*	*v	*v	*
!!LO:LB:g=original
=53	=53	=53
8G GG	8gL B	.
8r	(16gL	.
.	16aJJ	.
4fn B G	16bLL	.
.	16cc	.
.	16dd	.
.	16dd#JJ)	.
=54!|:	=54!|:	=54!|:
*>D	*>D	*>D
*k[]	*k[]	*k[]
*	*^	*
!	!	!	!LO:DY:t=%s legato
8CL CC	(16eeLL	4g	mp
.	16dd#	.	.
8eJ c G	16ee	.	.
.	16gJJ)	.	.
8FL FF	16aLK	8.aL	.
.	8cc	.	.
8fJ c A-	.	.	.
.	16ddnJk	16a-Jk	.
*	*v	*v	*
=55	=55	=55
8CL CC	8eeL cc g	.
8eJ c G	16aaL ee cc a	.
.	[16ggJJ [ee [>cc [g	.
8GGL< GGG	(16gg]LL ee] cc] g]	.
.	16eee ee	.
8fJ B G	16ddd dd	.
.	16ffJJ)	.
=56	=56	=56
*	*^	*
8CL CC	(16eeLL	4g	.
.	16dd#	.	.
8eJ c G	16ee	.	.
.	16gJJ)	.	.
8FL FF	16aLK	8.aL	.
.	8cc	.	.
8F#J FF#	.	.	.
.	16ddnJk	16a-Jk	.
*	*v	*v	*
=57	=57	=57
8GL GG	2ee cc g	.
8c^ C	.	.
8B^ BB	.	.
8B-^J BB-	.	.
!!LO:LB:g=original
=58	=58	=58
*^	*	*
8AL	4A AA	(16ffLL	.
.	.	16ccc	.
8fJ c A	.	16dd	.
.	.	[16ccJJ)	.
8A-L	4A- AA-	16ccLL]	.
.	.	(16dd	.
8cJ A-	.	16ff	.
.	.	16cccJJ)	.
*v	*v	*	*
=59	=59	=59
8GL GG	(16eeLL	.
.	16gg	.
8eJ c G	16dd	.
.	[16ccJJ)	<
*	*^	*
8EL EE	16ryy	16ccLL]	.
.	8.cc	(>16gg g	.
8E-J EE-	.	16aa a	.
.	.	16aa#JJ a#)	[[
=60	=60	=60	=60
8.DL DD	8.gg	16bbLL b	<
.	.	16ccc cc	.
.	.	16ddd dd	.
[16EJk [EE	16ryy	[>16bbJJ [gg [cc#	.
8E]L EE]	16bbLL]	8gg]L cc#]	[
.	16ggJ	.	.
8DJ DD	8aaJ	8ff#J ccn	.
*	*v	*v	*
=61	=61	=61
8GL GG	8ggL< dd b	.
8F FF	(16gL	>
.	16aJJ	.
8E EE	16bLL	.
.	16cc	.
8DJ DD	16dd	.
.	16dd#JJ)	]]
=62	=62	=62
*	*^	*
8CL CC	(16eeLL	4g	mp
.	16dd#	.	.
8eJ c G	16ee	.	.
.	16gJJ)	.	.
8FL FF	16aLK	8.aL	.
.	8cc	.	.
8fJ c A-	.	.	.
.	16ddnJk	16a-Jk	.
*	*v	*v	*
!!LO:LB:g=original
=63	=63	=63
8CL CC	8eeL cc g	.
8eJ c G	16aaL ee cc a	.
.	[16ggJJ [ee [cc [g	.
8GGL< GGG	16gg]LL ee] cc] g]	.
.	16ccJ	.
8eJ c G	8eeJ	.
=64	=64	=64
8EEL< EEE	16dd#LL	.
.	16ee	.
8eJ d G#	16gg#	.
.	[16cccJJ [gg# [ddn	.
8EEL< EEE	16ccc]LL gg#] dd]	.
.	16eeJ	.
8eJ d G#	8bbJ gg# dd	.
=65	=65	=65
8AAL< AAA	8aaL ee cc	.
8eJ c A	16bbL b	.
.	[16cccJJ [cc	.
8EEL< EEE	16ccc]LL cc]	.
.	(16aa	.
8eJ c A	16ee	.
.	16ccJJ)	.
=66	=66	=66
(16FF#LL	(16cccLL	mf
16AA	16aa	.
16C	16ff#	.
16D#JJ	16dd#JJ	.
16F#LK	16ccLK	.
8A	8a	.
16A-Jk)	16a-Jk)	.
=67	=67	=67
8GL GG	8gL	.
8eJ c G	16aL	.
.	[>16ccJJ	.
8AAL< AAA	16ccLL]	.
.	16ddJ	.
8eJ c A	8eeJ	.
!!LO:LB:g=original
=68	=68	=68
8DL DD	4a f#	.
8cJ A F#	.	.
8GL GG	4ee/ g/ fn/	.
8BJ G Fn	.	.
=69	=69	=69
*>D1	*>D1	*>D1
8c G E C	8ccL g e	.
8r	(16gL	.
.	16aJJ	.
4f B G	16bLL	.
.	16cc	.
.	16dd	.
.	16dd#JJ)	.
=70:|!	=70:|!	=70:|!
*>D2	*>D2	*>D2
8cL< G E C	[4cc [g [e	.
16D#^^L DD#	.	.
16E^^JJ EE	.	.
16G^^LL GG	8cc] g] e]	.
16c^^ C	.	.
16B^^ BB	8r	.
16A^^JJ GG	.	.
=71!|:	=71!|:	=71!|:
*>E	*>E	*>E
*	*^	*
!	!	!	!LO:DY:rj
8GL GG	(16gLL	8.gL	mf
!	!LO:TX:c:i:t=legato	!	!
.	16b	.	.
8F FF	16dd	.	.
.	[16ggJJ)	[16bJk	.
8E EE	(16ggLL]	4b]	.
.	16aa	.	.
8DJ DD	16gg	.	.
.	16ffJJ)	.	.
=72	=72	=72	=72
8CL CC	8eeL	8.ccL	.
8eJ c G	16ggL	.	.
.	[16cccJJ	[>16eeJk [cc	.
8EL EE	8.cccL]	8ee] cc]	.
8eJ c G	.	8re	>
.	16a#Jk	.	]]
*	*v	*v	*
!!LO:LB:g=original
=73	=73	=73
8GGL< GGG	16bLK	mp
.	8gg	.
8fJ d B G	.	.
.	16a#Jk	.
8DL DD	16bLK	.
.	8gg	.
8D#J DD#	.	.
.	16bJk	.
=74	=74	=74
8EL EE	(16ccLL	<
.	16dd	.
8eJ c G	16dd#	.
.	[16eeJJ)	.
16G^^LL GG	4ee]	.
16c^^ C	.	.
16B^^ BB	.	.
16A^^JJ AA	.	[[
=75	=75	=75
*	*^	*
8GL GG	(16gLL	8.gL	mf
.	16b	.	.
8F FF	16dd	.	.
.	[16ggJJ)	[16bJk	.
8E EE	16ggLL]	4b]	.
.	(16aa	.	.
8DJ DD	16gg	.	.
.	16ffJJ)	.	.
=76	=76	=76	=76
8CL CC	8eeL	8.ccL	.
8eJ c G	16ggL	.	.
.	[16cccJJ	[16eeJk [cc	.
8AAL< AAA	(16cccLL]	8ee] cc]	.
.	16aa	.	.
8eJ c A	16ee	8rg	.
.	16ccJJ)	.	.
=77	=77	=77	=77
8BBL BBB	16bLL	8.bL	<
.	16ee	.	.
8eJ B G	16gg	.	.
.	[16ff#JJ	[>16dd#Jk [b	.
8BBL< BBB	8ff#L]	8dd#]L b]	.
8d#J B A	8bbJ	8dd#J b	[[
*	*v	*v	*
!!LO:LB:g=original
=78	=78	=78
8EL EE	8bbL ee b	f
8eJ B G	(16ggL	.
.	16bJJ)	.
8C#L< CC#	(16eeLL>	>
.	16cc#	.
8A#J G E	16a#	.
.	[16gJJ)	]]
=79	=79	=79
*	*^	*
8DL DD	(16gLL	8.gL]	.
.	16b	.	.
8F FF	16dd	.	.
.	[16ggJJ)	[16bJk	.
8E EE	(16ggLL]	4b]	.
.	16aa	.	.
8DJ DD	16gg	.	.
.	16ffJJ)	.	.
=80	=80	=80	=80
8CL CC	8eeL	8.ccL	.
8eJ c G	16ggL	.	.
.	[16cccJJ	[16eeJk [cc	.
8EL EE	8.cccL]	8ee] cc]	.
8eJ c G	.	8r	.
.	16a#Jk	.	.
*	*v	*v	*
=81	=81	=81
8GGL< GGG	16bLK	.
.	8gg	.
8fJ d B G	.	.
.	16a#Jk	.
8DL DD	16bLK	.
.	8gg	.
8D#J DD#	.	.
.	16bJk	.
=82	=82	=82
8EL EE	(16ccLL	>
.	16b	.
8eJ c G	16a	.
.	[16gJJ)	.
8CL	8.gL]	.
8eJ c G	.	.
.	16g#Jk	]]
!!LO:LB:g=original
=83	=83	=83
*^	*	*
2c	(8FL	(16aLL	.
.	.	16aa	.
.	8D#	16ff	.
.	.	16ccJJ)	.
.	8E	(16gLK<	.
.	.	8gg ee cc)	.
.	8CJ)	.	.
.	.	16g#Jk	.
=84	=84	=84	=84
2c	(8FL	(16aLL	.
.	.	16aa	.
.	8D#	16ff	.
.	.	16ccJJ)	.
.	8E)	(16gLK<	.
.	.	8gg ee cc)	.
.	8EJ EE	.	.
.	.	16gJk	.
*v	*v	*	*
=85	=85	=85
8DL DD	4a f#	mf
8cJ A F#	.	.
8GL GG	4ee/ g/ fn/	.
8BJ G Fn	.	.
=86	=86	=86
*>E1	*>E1	*>E1
8cL< G E C	[4cc [g [e	.
16D#L DD#	.	.
16EJJ EE	.	.
16GLL GG	8cc] g] e]	.
16c C	.	.
16B BB	8r	.
16AJJ AA	.	.
=87:|!	=87:|!	=87:|!
*>E2	*>E2	*>E2
8cL G E C	4cc g e	.
(8FF#q	.	.
8GGJ)	.	.
8C CC	8ccc^^ gg ee cc	.
8r	8r	.
==	==;	==
*-	*-	*-
!!!RDF**kern: > = above
!!!RDF**kern: < = below
!!!URL-vhv: https://verovio.humdrum.org/?file=joplin/heliotrope.krn
!!!URL-pdf-original: https://github.com/craigsapp/joplin/blob/master/reference-edition/heliotrope.pdf
!!!PPR: John Stark & Son
!!!PPP: New York and St. Louis, Missouri
!!!PDT: 1907
!!!YEC: Copyright 2004 by Craig Stuart Sapp
!!!YEN: United States of America
!!!ENC: Craig Stuart Sapp
!!!END: 2004/06/08/
!!!EED: Craig Stuart Sapp
!!!EEV: 2021/06/28
!!!YEC: 2021 Craig Stuart Sapp
!!!URL: https://github.com/craigsapp/joplin
!!!YEM: Licence: (CC BY-NC-SA 4.0) https://creativecommons.org/licenses/by-nc-sa/4.0
!!!YER: 2021
